X: 26
T: Piano Sonata no. 8 in C minor, Allegro
C: Ludwig van Beethoven
%%abc-version 2.0
%%abcx-abcm2ps-target-version 5.9.1 (29 Sep 2008)
%%abc-creator hum2abc beta
%%abcx-conversion-date 2021/01/11 11:42:11
%%abc-edited-by Craig Stuart Sapp
%%abc-edited-by Craig Stuart Sapp
%%abcx-initial-encoding-date 2008/02/25
%%gracespace 0 6 6
%%humdrum-veritas 2018816446
%%humdrum-veritas-data 222372814
%%linebreak <none>
%%barnumbers 0
L: 1/8
M: 4/4
Q: "Allegro molto e con brio" 1/4=40
%%staves {1 2}
V: 1 clef=treble
V: 2 clef=bass
K: Eb
[V:1] [E,2G,2C2]-[E,/G,/C/]>[G,/C/][G,/=B,/D/]>[G,/C/E/][=A,2C2E2][=B,D] z | 
[V:2] [C,,2E,,2G,,2C,2]-[C,,/E,,/G,,/C,/]>E,/D,/>C,/^F,2G, z3// _A,,// | 
[V:1] [=B,2D2F2]-[B,/D/F/]>[B,/D/F/][B,/D/G/]>[B,/D/A/][B,2D2A2][CEG] z | 
[V:2] _A,2-A,/>A,/G,/>=F,/E,2-E, z3// E,// | 
[V:1] [^F2=A2c2]-[F/A/c/]>[F/A/c/][F/A/d/]>[F/A/e/][F2A2e2][D/G/d/]z//[^F/=A/c/]<[F/A/d/][F//A//e//] | 
[V:2] E2-E/>E/D/>C/C2.=B,/z//E/<D/C// | 
[V:1] [^F2=A2e2][DGd][Gc=e] .[_Acf] a- a//(3:2:6g/8a/8b/8a/8g/8f/8 _e/8d/8c/8B/8 (3:2:9A/8G/8=F/8E/8D/8F/8A/8F/8D/8 | 
[V:2] C2[=B,D][_B,C=E] .[_A,C=F] z!sfz![B,,,2B,,2] | 
[V:1] .E [Ee]- [E/e/]>[E/e/][F/f/]>[G/g/] [Gg][F/f/] z// F/< [F,/A,/=B,/F/][F,/A,/B,/F/]<[F,/A,/C/F/][F,//A,//C//F//] | 
[V:2] [E,,/E,/][E,/G,/B,/][E,/G,/B,/]!wedge![E,/G,/B,/] [E,/G,/B,/][E,/G,/B,/][E,/G,/B,/][E,/G,/B,/] [E,/A,/C/][E,/A,/C/][E,/A,/C/][E,/A,/C/] [D,,/D,/][D,,/D,/][C,,/C,/][C,,/C,/] | 
[V:1] [F,A,DF] [Ff]- [F/f/]>[F/f/][G/g/]>[A/a/] [Aa][G/g/] z// [G,/^C/=E/G/]< [=A,/C/E/=A/][A,/C/E/A/]<[_B,/C/E/_B/][B,//C//E//B//] | 
[V:2] [=B,,,/=B,,/] [B,,/D,/F,/A,/][B,,/D,/F,/A,/][B,,/D,/F,/A,/] [_B,,/D,/F,/A,/][B,,/D,/F,/A,/][B,,/D,/F,/A,/][B,,/D,/F,/A,/] [B,,/^C,/=E,/G,/][B,,/C,/E,/G,/][B,,/C,/E,/G,/][B,,/C,/E,/G,/] [=A,,,/=A,,/][A,,,/A,,/][G,,,/G,,/][G,,,/G,,/] | 
[V:1] [=A,D^F=A] [=A=a]- [A/a/]>[A/a/][=B/=b/]>[c/c'/] [cc'][B/b/] z/ z [B3//b3//][c//c'//] | 
[V:2] [^F,,,/^F,,/] [^F,/=A,/D/][F,/A,/D/][F,/A,/D/] [F,/A,/D/][F,/A,/D/][F,/A,/D/][F,/A,/D/] [=F,/_A,/D/][F,/A,/D/][F,/A,/D/][F,/A,/D/] [D,/F,/=B,/][D,/F,/B,/][D,/F,/B,/][D,/F,/B,/] | 
[V:1] [^c^c'][dd'] z [d/d'/]>[e/e'/] [=e=e'][f2f'2][ff'] | 
[V:2] [=B,,/D,/A,/][B,,/D,/A,/][B,,/D,/A,/][B,,/D,/A,/] [A,,/B,,/F,/][A,,/B,,/F,/][A,,/B,,/F,/][A,,/B,,/F,/] [G,,/B,,/F,/][G,,/B,,/F,/][G,,/B,,/F,/][G,,/B,,/F,/] [A,,/C,/F,/][A,,/C,/F,/][A,,/C,/F,/][A,,/C,/F,/] | 
[V:1] [ff']- [f//f'//]_e'/8d'/8f'/8e'/8d'/8c'/8 .=b/.b/.[f/b/].[f/b/] [ec'] zz2 | 
[V:2] [G,,=B,,F,] z z[K:clef=treble] .[G/d/].[G/d/] [Ac] zz2[K:clef=bass] | 
[V:1] c'-c'//=b/8c'/8!beambr1!(3:2:6d'/8c'/8_b/8a/8g/8b/8 .a/.a/.a/.a/ g/e'/- (3:2:6e'/8d'/8_d'/8c'/8=b/8_b/8 (7:4:7=a/8_a/8g/8^f/8=f/8=e/8_e/8 d/16_d/16c/16=B/16_B/16=A/16_A/16G/16^F/16=F/16=E/16_E/16D/16_D/16C/16=B,/16 !fermata!A3//B,// ||  
[V:2] z2z .[F,/C/D/].[F,/C/D/] .[G,CE] z [G,,D,F,] !fermata!z ||  
[V:1] [M:2/2]C6.[B,2=E2] | 
[V:2] [M:2/2]C,,C,C,,C, C,,C,C,,C, | 
[V:1] .[A,2F2].[=E2G2].[F2A2].[D2=B2] | 
[V:2] C,,C,C,,C, C,,C,C,,C, | 
[V:1] .[_E2c2]!sfz![=E4c4].[_B2=e2] | 
[V:2] C,,C,C,,C, C,,C,C,,C, | 
[V:1] .[A2f2].[=e2g2].[f2a2].[d2=b2] | 
[V:2] C,,C,C,,C, C,,C,C,,C, | 
[V:1] .[c4_e4g4c'4].[G4=B4f4g4] | 
[V:2] C,,C,C,,C, D,,D,D,,D, | 
[V:1] .[G4c4e4].[F4A4d4] | 
[V:2] E,,E,E,,E, F,,F,F,,F, | 
[V:1] [E8c8]- & G4^F4 | 
[V:2] G,,G,G,,G, A,,A,A,,A, | 
[V:1] [E4=A4c4][D4F4=B4] | 
[V:2] ^F,,^F,F,,F, G,,G,G,,G, | 
[V:1] .[C2E2c2]C4.[_B,2=E2] | 
[V:2] C,,C,C,,C, C,,C,C,,C, | 
[V:1] .[A,2F2].[=E2G2].[F2_A2].[D2=B2] | 
[V:2] C,,C,C,,C, C,,C,C,,C, | 
[V:1] .[_E2c2]!sfz![=E4c4].[_B2=e2] | 
[V:2] C,,C,C,,C, C,,C,C,,C, | 
[V:1] .[A2f2].[=e2g2].[f2a2].[d2=b2] | 
[V:2] C,,C,C,,C, C,,C,C,,C, | 
[V:1] .[c4_e4g4c'4].[G4=B4f4g4] | 
[V:2] C,,C,C,,C, D,,D,D,,D, | 
[V:1] .[G4c4e4].[F4A4d4] | 
[V:2] E,,E,E,,E, F,,F,F,,F, | 
[V:1] [E8c8]- & G4^F4 | 
[V:2] G,,G,G,,G, A,,A,A,,A, | 
[V:1] [E8=A8c8] | 
[V:2] ^F,,^F,F,,F, F,,F,F,,F, | 
[V:1] [D2G2=B2]z2!sfz![G4g4]- | 
[V:2] [G,,2G,2][=B,2D2][B,2D2][B,2D2] | 
[V:1] [G2g2]z2!sfz![G4g4]- | 
[V:2] G,2[C2E2][C2E2][C2E2] | 
[V:1] [Gg]fd=B GFD=B, | 
[V:2] [D2F2]z2z4 | 
[V:1] CECG, ^F,CA,F, | 
[V:2] z4A,,,A,,A,,,A,, | 
[V:1] G,2z2!sfz![G4g4]- | 
[V:2] [G,,,2G,,2][=B,2D2][B,2D2][B,2D2] | 
[V:1] [G2g2]z2!sfz![G4g4]- | 
[V:2] G,2[C2E2][C2E2][C2E2] | 
[V:1] [Gg]fd=B GFD=B, | 
[V:2] [D2F2]z2z4 | 
[V:1] CECG, ^F,CA,F, | 
[V:2] z4A,,,A,,A,,,A,, | 
[V:1] .G,2.^F2.G2.[F2c2] | 
[V:2] G,,,G,,G,,,G,, G,,,G,,G,,,G,, | 
[V:1] .[G2=B2].[c2^f2].[B2g2].[f2c'2] | 
[V:2] G,,,G,,G,,,G,, G,,,G,,G,,,G,, | 
[V:1] [g2=b2]z2z4 | 
[V:2] G,,,G,,G,,,G,, G,,,G,,G,,,G,, | 
[V:1] !sfz![_B,8_D8_E8-] | 
[V:2] G,,,G,,G,,,G,, G,,,G,,G,,,G,, | 
[V:1] [C2E2]._d2.c2.[d2g2] | 
[V:2] A,,,A,,A,,,A,, A,,,A,,A,,,A,, | 
[V:1] .[c2a2].[g2_d'2].[a2c'2].[g2d'2] | 
[V:2] A,,,A,,A,,,A,, A,,,A,,A,,,A,, | 
[V:1] .[a2c'2]z2z4 | 
[V:2] A,,,A,,A,,,A,, A,,,A,,A,,,A,, | 
[V:1] !sfz![C8E8_G8] | 
[V:2] =A,,,=A,,A,,,A,, A,,,A,,A,,,A,, | 
[V:1] .[=D2F2].[=A2e2].[B2d2].[e2=a2] | 
[V:2] B,,,B,,B,,,B,, B,,,B,,B,,,B,, | 
[V:1] .[d2b2].[=a2e'2].[b2d'2].[a2e'2] | 
[V:2] B,,,B,,B,,,B,, B,,,B,,B,,,B,, | 
[V:1] .[b2d'2]z2!sfz![e4=a4] | 
[V:2] B,,,B,,B,,,B,, B,,,B,,B,,,B,, | 
[V:1] [d2b2]z2!sfz![=A4e4] | 
[V:2] B,,,B,,B,,,B,, B,,,B,,B,,,B,, | 
[V:1] [B2d2]z2!sfz![E4=A4] | 
[V:2] B,,,B,,B,,,B,, B,,,B,,B,,,B,, | 
[V:1] [D2B2]z2!sfz![=A,4E4] | 
[V:2] B,,,B,,B,,,B,, B,,,B,,B,,,B,, | 
[V:1] [B,2D2]=A,2B,2A,2 | 
[V:2] [B,,,2B,,2]z2z4 | 
[V:1] B,2=A,2B,2A,2[K:clef=bass] | 
[V:2] z8[K:clef=treble] | 
[V:1] z2.B,,2.E,2.F,2 | 
[V:2] z2[E2_G2][E2G2][E2G2] & B,8 | 
[V:1] ._G,2[K:clef=treble].B2.e2.f2 | 
[V:2] z2[E2_G2][E2G2][E2G2] & B,8 | 
[V:1] {/B}!sfz!_g6e2 | 
[V:2] z2[E2_G2][E2G2][E2G2] & B,8 | 
[V:1] {/B}!sfz!_g6e2 | 
[V:2] z2[E2_G2][E2G2][E2G2] & B,8 | 
[V:1] .d2[K:clef=bass].B,,2.F,2._G,2 | 
[V:2] z2[F2A2][F2A2][F2A2] & B,8 | 
[V:1] .A,2[K:clef=treble]B2a2_g2 | 
[V:2] z2[F2A2][F2A2][F2A2] & B,8 | 
[V:1] !mordent!_g2f2!mordent!f2e2 | 
[V:2] z2[F2A2][F2A2][F2A2] & B,8 | 
[V:1] !mordent!e2d2.c2.d2 | 
[V:2] z2[F2A2][F2A2][F2A2] & B,8 | 
[V:1] .e2[K:clef=bass].B,,2.E,2.F,2 | 
[V:2] z2[E2_G2][E2G2][E2G2] & B,8 | 
[V:1] ._G,2[K:clef=treble].B2.e2.f2 | 
[V:2] z2[E2_G2][E2G2][E2G2] & B,8 | 
[V:1] {/B}!sfz!_g6e2 | 
[V:2] z2[E2_G2][E2G2][E2G2] & B,8 | 
[V:1] {/B}!sfz!_g6e2 | 
[V:2] z2[E2_G2][E2G2][E2G2] & B,8 | 
[V:1] .c2[K:clef=bass].A,,2.E,2.F,2 | 
[V:2] z2[E2_G2][E2G2][E2G2] & A,8 | 
[V:1] ._G,2[K:clef=treble]A2_g2f2 | 
[V:2] z2[E2_G2][E2G2][E2G2] & A,8 | 
[V:1] !mordent!f2e2!mordent!e2_d2 | 
[V:2] z2[E2_G2][E2G2][E2G2] & A,8 | 
[V:1] !mordent!_d2c2.B2.c2 | 
[V:2] z2[E2_G2][E2G2][E2G2] & A,8 | 
[V:1] _d2[K:clef=bass].A,,2._D,2.E,2 | 
[V:2] z2[_D2F2][D2F2][D2F2] & A,8 | 
[V:1] .F,2[K:clef=treble].A2._d2.e2 | 
[V:2] z2[_D2F2][D2F2][D2F2] & A,8 | 
[V:1] {/A}!sfz!f6_d2 | 
[V:2] z2[_D2F2][D2F2][D2F2] & A,8 | 
[V:1] {/A}!sfz!f6_d2 | 
[V:2] z2[_D2F2][D2F2][D2F2] & A,8 | 
[V:1] .c2[K:clef=bass].A,,2.E,2.F,2 | 
[V:2] z2[E2_G2][E2G2][E2G2] & A,8 | 
[V:1] ._G,2[K:clef=treble]A2_g2f2 | 
[V:2] z2[E2_G2][E2G2][E2G2] & A,8 | 
[V:1] !mordent!f2e2!mordent!e2_d2 | 
[V:2] z2[E2_G2][E2G2][E2G2] & A,8 | 
[V:1] !mordent!_d2c2.B2.c2 | 
[V:2] z2[E2_G2][E2G2][E2G2] & A,8 | 
[V:1] ._d2[K:clef=bass]!sfz!_D,2A,2._C,2 | 
[V:2] z2[F2A2]z2[F2A2] & _D4_C4 | 
[V:1] .B,,2[K:clef=treble]B2a2_g2 | 
[V:2] z2[F2A2][F2A2][F2A2] & B,8 | 
[V:1] !mordent!_g2f2!mordent!f2e2 | 
[V:2] z2[F2A2][F2A2][F2A2] & B,8 | 
[V:1] !mordent!e2=d2.c2.d2 | 
[V:2] z2[F2A2][F2A2][F2A2] & B,8 | 
[V:1] e2[K:clef=bass]!sfz!E,2B,2._D,2 | 
[V:2] z2[_G2B2]z2[F2B2] & E4_D4 | 
[V:1] .C,2[K:clef=treble]c2b2a2 | 
[V:2] z2[=G2B2][G2B2][G2B2] & C8 | 
[V:1] !mordent!a2=g2!mordent!g2f2 | 
[V:2] z2[G2B2][G2B2][G2B2] & C8 | 
[V:1] !mordent!f2=e2=d2e2 | 
[V:2] z2[G2B2][G2B2][G2B2] & C8 | 
[V:1] !mordent!g2f2!mordent!f2_e2 | 
[V:2] z2A2A2A2 & F8 | 
[V:1] !mordent!e2d2c2d2 | 
[V:2] z2[F2A2][F2A2][F2A2] & B,4=B,4 | 
[V:1] !mordent!f2e2!mordent!e2d2 | 
[V:2] z2[E2G2][E2G2][E2G2] & C8 | 
[V:1] !mordent!d2c2!mordent!c2=B2 | 
[V:2] z2[E2F2][E2F2][E2F2] & A,8 | 
[V:1] !mordent!c2_B2.B2.B2 | 
[V:2] z2[E2G2][E2G2][E2G2] & B,8 | 
[V:1] !mordent!c2B2.B2.B2 | 
[V:2] z2[D2F2][D2F2][D2F2][K:clef=bass] & B,8 | 
[V:1] x4e4- & z EGE eEGE | 
[V:2] z B,G,B, G,B,G,B, & E,8- | 
[V:1] e4e4 & GEGE z EGE | 
[V:2] G,B,G,B, z B,G,B, & E,4E,4 | 
[V:1] x4e4- & z EGE eEGE | 
[V:2] z B,G,B, G,B,G,B, & _D,8- | 
[V:1] e4e4 & GEGE z EGE | 
[V:2] G,B,G,B, z B,G,B, & D,4_D,4 | 
[V:1] .eEAE .=e=EcE | 
[V:2] .C,A,E,A, .B,,G,C,G, | 
[V:1] .fFcF .gGcG | 
[V:2] .A,,A,C,A, .G,,G,C,G, | 
[V:1] .aAcA .=a=AcA | 
[V:2] .F,,F,C,F, .E,,E,F,,E, | 
[V:1] .bBfB .c'cfc | 
[V:2] .D,,D,F,,D, .C,,C,F,,C, | 
[V:1] ._d'_dfd .=d'=dfd | 
[V:2] .B,,,B,,F,,B,, .A,,,A,,F,,A,, | 
[V:1] .e'ege .=b=BeB | 
[V:2] .G,,,G,,E,,G,, .G,,,G,,E,,G,, | 
[V:1] z cec .c'cec | 
[V:2] .[A,,,2A,,2]z2z4 | 
[V:1] z FAF .dFAF | 
[V:2] .[B,,,2B,,2]z2z4 | 
[V:1] x4e4- & z EGE eEGE | 
[V:2] z B,G,B, G,B,G,B, & E,8- | 
[V:1] e4e4 & GEGE z EGE | 
[V:2] G,B,G,B, z B,G,B, & E,4E,4 | 
[V:1] x4e4- & z EGE eEGE | 
[V:2] z B,G,B, G,B,G,B, & _D,8- | 
[V:1] e4e4 & GEGE z EGE | 
[V:2] G,B,G,B, z B,G,B, & D,4_D,4 | 
[V:1] .eEAE .=e=EcE | 
[V:2] .C,A,E,A, .B,,G,C,G, | 
[V:1] .fFcF .gGcG | 
[V:2] .A,,A,C,A, .G,,G,C,G, | 
[V:1] .aAcA .=a=AcA | 
[V:2] .F,,F,C,F, .E,,E,F,,E, | 
[V:1] .bBfB .c'cfc | 
[V:2] .D,,D,F,,D, .C,,C,F,,C, | 
[V:1] ._d'_dfd .=d'=dfd | 
[V:2] .B,,,B,,F,,B,, .A,,,A,,F,,A,, | 
[V:1] .e'ebe .=e'=ebe | 
[V:2] .G,,,G,,E,,G,, .G,,,G,,G,,,G,, | 
[V:1] z ac'a .f'ac'a | 
[V:2] [A,,,2A,,2]z2z4 | 
[V:1] z faf .d'faf | 
[V:2] [B,,,2B,,2]z2z4 | 
[V:1] g2e'4d'e' | 
[V:2] .[E,,2E,2][K:clef=treble][E2G2][E2G2][E2G2] | 
[V:1] f'e'd'c' =bc'd'c' | 
[V:2] z2[E2G2][E2G2][E2G2] & C8 | 
[V:1] _bagf =efgf | 
[V:2] z2[E2F2][E2F2][E2F2] & A,8 | 
[V:1] _edcB =ABc_A | 
[V:2] z2[D2F2][D2F2][D2F2][K:clef=bass] & B,8 | 
[V:1] G2[e4e'4]d'e' | 
[V:2] z2[G,2E2][G,2E2][G,2E2] & E,8 | 
[V:1] f'e'd'c' =bc'd'c' | 
[V:2] z2[E,2G,2C2][E,2G,2C2][E,2G,2C2] & C,8 | 
[V:1] _bagf =efgf | 
[V:2] z2[E,2F,2A,2][E,2F,2A,2][E,2F,2A,2] & A,,8 | 
[V:1] _edcB =ABcB | 
[V:2] z2[D,2F,2B,2][D,2F,2B,2][D,2F,2B,2] & B,,8 | 
[V:1] .e2!accent!E4.[_D2G2] | 
[V:2] E,,E,E,,E, E,,E,E,,E, | 
[V:1] .[C2A2].[G2B2].[A2c2].[A2=d2] | 
[V:2] E,,E,E,,E, E,,E,E,,E, | 
[V:1] .[G2e2]!accent!e4.[_d2g2] | 
[V:2] E,,E,E,,E, E,,E,E,,E, | 
[V:1] .[c2a2].[g2b2].[a2c'2].[a2=d'2] | 
[V:2] E,,E,E,,E, E,,E,E,,E, | 
[V:1] [g8e'8] | 
[V:2] E,,E,E,,E, E,,E,E,,E, | 
[V:1] [G8e8] | 
[V:2] D,,D,D,,D, D,,D,D,,D, | 
[V:1] [g8e'8] | 
[V:2] C,,C,C,,C, C,,C,C,,C, | 
[V:1] [G8e8] | 
[V:2] B,,,B,,B,,,B,, B,,,B,,B,,,B,, | 
[V:1] !sfz![c'8e'8] | 
[V:2] A,,,A,,A,,,A,, A,,,A,,A,,,A,, | 
[V:1] !sfz![c8e8] |[1 
[V:2] G,,,G,,G,,,G,, G,,,G,,G,,,G,, | 
[V:1] [=a8c'8d'8] | 
[V:2] [^F,,,8^F,,8] | 
[V:1] !fermata![F,8=B,8D8] :|][2 
[V:2] !fermata![G,,,8G,,8] :|]  
[V:1] [=a8c'8d'8] | 
[V:2] [^F,,,8^F,,8] | 
[V:1] !fermata![=A,8C8D8] || 
[V:2] !fermata![^F,,8^F,8] ||  
[V:1] [M:4/4][G,2B,2D2G2]-[G,/B,/D/G/]>[D/G/][D/^F/=A/]>[D/B/][=E2G2B2][FA] z | 
[V:2] [M:4/4][G,,,2B,,,2D,,2G,,2]-[G,,,/B,,,/D,,/G,,/]>B,/=A,/>G,/^C2D z3// E,// | 
[V:1] [^F2=A2c2]-[F/A/c/]>[F/A/c/][F/A/d/]>[F/A/e/][F2A2e2][GBd] z | 
[V:2] E2-E/>E/D/>C/B,3z3// E,// | 
[V:1] [^F2=A2c2]-[F/A/c/]>[F/A/c/][F/A/d/]>[F/A/^d/][F2A2d2][=E2G2=e2] | 
[V:2] E2-E/>E/D/>C/ C=B,2B, | 
[V:1] [^D2^F2=A2][=B,2=E2G2][=A,2C2D2F2]!fermata![^F,2A,2D2] ||  
[V:2] =B,=B,,2B,,2=B,,,2!fermata!B,,, ||  
[V:1]  [K:C] [M:2/2].E2.A2.G2.[A2^d2] | 
[V:2]  [K:C] [M:2/2]E,,E,E,,E, E,,E,E,,E, | 
[V:1] .[G2e2].[^d2a2].[e2g2].[a2^d'2] | 
[V:2] E,,E,E,,E, E,,E,E,,E, | 
[V:1] .[g2e'2]z2.[E2e2]z2 | 
[V:2] [E,,2E,2][G,2B,2][G,2B,2][G,2B,2] | 
[V:1] z2.[E2e2].[^F2^f2].[G2g2] | 
[V:2] E,2[G,2B,2][G,2B,2][G,2B,2] | 
[V:1] [G4g4][^F2^f2]z2 | 
[V:2] E,2[A,2C2][A,2C2][A,2C2] | 
[V:1] z2.[^F2^f2].[G2g2].[A2a2] | 
[V:2] _E,2[A,2C2][A,2C2][A,2C2] | 
[V:1] .[A2a2].G2.^F2.[G2^c2] | 
[V:2] D,,D,D,,D, D,,D,D,,D, | 
[V:1] .[^F2d2].[^c2g2].[d2^f2].[g2^c'2] | 
[V:2] D,,D,D,,D, D,,D,D,,D, | 
[V:1] .[^f2d'2]z2.[^F2f2]z2 | 
[V:2] [D,,2D,2][A,2C2][A,2C2][A,2C2] | 
[V:1] z2.[^F2^f2].[G2g2].[A2a2] | 
[V:2] D,2[A,2C2][A,2C2][A,2C2] | 
[V:1] [A4a4][G2g2]z2 | 
[V:2] D,2[G,2_B,2][G,2B,2][G,2B,2] | 
[V:1] z2.[G2g2].[A2a2].[_B2_b2] | 
[V:2] _D,2[G,2_B,2][G,2B,2][G,2B,2] | 
[V:1] _B_bBb BbBb | 
[V:2] [C,,2C,2]_D,2C,2F,2 | 
[V:1] _B_bBb BbBb | 
[V:2] E,2_D2C2F2 | 
[V:1] _B_bBb BbBb | 
[V:2] =E2^F2G2z2 | 
[V:1] _B_bBb BbBb | 
[V:2] z8 | 
[V:1] =A=aAa AaAa | 
[V:2] z2_G,,2F,,2_D,2 | 
[V:1] AaAa AaAa | 
[V:2] C,2_G,2F,2_D2 | 
[V:1] AaAa AaAa | 
[V:2] C2=E2F2z2 | 
[V:1] AaAa AaAa | 
[V:2] z8 | 
[V:1] _A_aAa AaAa | 
[V:2] z2C,2B,,2D,2 | 
[V:1] _A_aAa AaAa | 
[V:2] .F,2C2=B,2.D2 | 
[V:1] _A_aAa AaAa | 
[V:2] .F2z2.D2z2 | 
[V:1] _A_aGg GgFf | 
[V:2] .B,2z2.G,2z2 | 
[V:1] FfEe Ee_D_d | 
[V:2] .[_D,2_D2]z2.[_B,,2_B,2]z2 | 
[V:1] _D_dCc Cc_B,_B | 
[V:2] .[G,,2G,2]z2.[E,,2E,2]z2 | 
[V:1] _B,_B_A,_A A,AG,G | 
[V:2] .[F,,2F,2]z2z4 | 
[V:1] G,GF,F F,F_E,_E | 
[V:2] [F,,,2F,,2]z2z4 | 
[V:1] _E,_ED,D D,DE,E | 
[V:2] [^F,,,2^F,,2]z2z4 | 
[V:1] _E,_ED,D D,DC,C | 
[V:2] [^F,,,2^F,,2]z2z4 | 
[V:1] [K:clef=bass][=B,,2=B,2]z2^C,_A,=E,C, | 
[V:2] G,,,G,,G,,,G,, G,,,G,,G,,,G,, | 
[V:1] D,_A,F,D, =C,A,_E,C, | 
[V:2] G,,,G,,G,,,G,, G,,,G,,G,,,G,, | 
[V:1] =B,,G,D,B,, ^C,_A,=E,C, | 
[V:2] G,,,G,,G,,,G,, G,,,G,,G,,,G,, | 
[V:1] D,_A,F,D, =C,A,_E,C, | 
[V:2] G,,,G,,G,,,G,, G,,,G,,G,,,G,, | 
[V:1] [=B,,2D,2G,2][K:clef=treble].=E2.F2.[E2^c2] | 
[V:2] G,,,G,,G,,,G,, G,,,G,,G,,,G,, | 
[V:1] .[F2d2].[^c2e2].[d2f2].[e2^c'2] | 
[V:2] G,,,G,,G,,,G,, G,,,G,,G,,,G,, | 
[V:1] .[f2d'2].[^c'2e'2]!sfz![d'4f'4]- | 
[V:2] G,,,2G,,4G,,2- & G,,,4B,,,4 | 
[V:1] [d'4f'4][=c'4_e'4]{/d'e'} | 
[V:2] G,,2G,,4G,,2 & C,,4^F,,,4 | 
[V:1] [=b2d'2]z2[K:clef=bass]^C,_A,=E,C, | 
[V:2] G,,,G,,G,,,G,, G,,,G,,G,,,G,, | 
[V:1] D,_A,F,D, =C,A,_E,C, | 
[V:2] G,,,G,,G,,,G,, G,,,G,,G,,,G,, | 
[V:1] =B,,G,D,B,, ^C,_A,=E,C, | 
[V:2] G,,,G,,G,,,G,, G,,,G,,G,,,G,, | 
[V:1] D,_A,F,D, =C,A,_E,C, | 
[V:2] G,,,G,,G,,,G,, G,,,G,,G,,,G,, | 
[V:1] [=B,,2D,2G,2][K:clef=treble].E2.F2.[E2^c2] | 
[V:2] G,,,G,,G,,,G,, G,,,G,,G,,,G,, | 
[V:1] .[F2d2].[^c2e2].[d2f2].[e2^c'2] | 
[V:2] G,,,G,,G,,,G,, G,,,G,,G,,,G,, | 
[V:1] .[f2d'2].[^c'2e'2]!sfz![d'4f'4]- | 
[V:2] G,,,2G,,4G,,2- & G,,,4=B,,,4 | 
[V:1] [d'4f'4][=c'4_e'4]{/d'e'} | 
[V:2] G,,2G,,4G,,2 & C,,4^F,,,4 | 
[V:1] .[b2d'2].[^c'2e'2]!sfz![d'4f'4]- | 
[V:2] G,,,2G,,4G,,2- & G,,,4=B,,,4 | 
[V:1] [d'4f'4][=c'4_e'4]{/d'e'} | 
[V:2] G,,2G,,4G,,2 & C,,4^F,,,4 | 
[V:1] .[b2d'2].[^c'2e'2]!sfz![d'4f'4]- | 
[V:2] G,,,2G,,4G,,2- & G,,,4=B,,,4 | 
[V:1] [d'4f'4][=c'4_e'4]{/d'e'} | 
[V:2] G,,2G,,4G,,2- & C,,4^F,,,4 | 
[V:1] [=bd']f'd'c' bf'd'c' | 
[V:2] .[G,,,2G,,2]z2z4 | 
[V:1] =bf'd'c' bd'bg | 
[V:2] z8 | 
[V:1] _a_bag faf_e | 
[V:2] z8 | 
[V:1] dfdc =BdBG | 
[V:2] z8 | 
[V:1] _A_BAG FAF_E | 
[V:2] z8 | 
[V:1] DFDC[K:clef=bass] =B,DB,G, | 
[V:2] z8 | 
[V:1] _A,_B,A,G, F,_E,D,C, | 
[V:2] z8 | 
[V:1] =B,,C,B,,_A,,z4 ||  
[V:2] z4G,,F,,_E,,D,, ||  
[V:1]  [K:Eb] [K:clef=treble]C6.[_B,2=E2] | 
[V:2]  [K:Eb] C,,C,C,,C, C,,C,C,,C, | 
[V:1] .[A,2F2].[=E2G2].[F2A2].[D2=B2] | 
[V:2] C,,C,C,,C, C,,C,C,,C, | 
[V:1] .[_E2c2]!sfz![=E4c4].[B2=e2] | 
[V:2] C,,C,C,,C, C,,C,C,,C, | 
[V:1] .[A2f2].[=e2g2].[f2a2].[d2=b2] | 
[V:2] C,,C,C,,C, C,,C,C,,C, | 
[V:1] .[c4_e4g4c'4].[G4=B4f4g4] | 
[V:2] C,,C,C,,C, D,,D,D,,D, | 
[V:1] .[G4c4e4].[F4A4d4] | 
[V:2] E,,E,E,,E, F,,F,F,,F, | 
[V:1] [E8c8]- & G4^F4 | 
[V:2] G,,G,G,,G, A,,A,A,,A, | 
[V:1] [E4=A4c4][D4F4=B4] | 
[V:2] ^F,,^F,F,,F, G,,G,G,,G, | 
[V:1] .[C2E2c2]C4.[_B,2=E2] | 
[V:2] C,,C,C,,C, C,,C,C,,C, | 
[V:1] .[A,2F2].[=E2G2].[F2_A2].[D2=B2] | 
[V:2] C,,C,C,,C, C,,C,C,,C, | 
[V:1] .[_E2c2]!sfz![=E4c4].[_B2=e2] | 
[V:2] C,,C,C,,C, C,,C,C,,C, | 
[V:1] .[A2f2].[=e2g2].[f2a2].[d2=b2] | 
[V:2] C,,C,C,,C, C,,C,C,,C, | 
[V:1] .[c4_e4g4c'4].[A4e4a4] | 
[V:2] C,,C,C,,C, C,,C,C,,C, | 
[V:1] .[A4_d4f4].[_G4c4e4] | 
[V:2] _D,,_D,D,,D, E,,E,E,,E, | 
[V:1] .[F4A4_d4].[_D4_G4B4] | 
[V:2] F,,F,F,,F, _G,,_G,G,,G, | 
[V:1] A8 & [_D4F4][C4E4] | 
[V:2] A,,A,A,,A, A,,A,A,,A, | 
[V:1] .[D4F4B4].[B4f4b4] | 
[V:2] A,,A,A,,A, =D,,=D,D,,D, | 
[V:1] .[B4e4_g4].[A4=d4f4] | 
[V:2] E,,E,E,,E, F,,F,F,,F, | 
[V:1] .[_G4B4e4].[E4A4_c4] | 
[V:2] _G,,_G,G,,G, A,,A,A,,A, | 
[V:1] B8 & [E4_G4][D4F4] | 
[V:2] B,,B,B,,B, B,,B,B,,B, | 
[V:1] .[=E4G4c4].[c4g4c'4] | 
[V:2] B,,B,B,,B, =E,,=E,E,,E, | 
[V:1] .[c4f4a4].[B4=e4g4] | 
[V:2] F,,F,F,,F, G,,G,G,,G, | 
[V:1] .[A4c4f4].[F4_d4] | 
[V:2] A,,A,A,,A, B,,B,B,,B, | 
[V:1] .[F4c4].[F4=B4] | 
[V:2] C,CC,C _D,_DD,D | 
[V:1] .[=E2c2]=B,2C2B,2 | 
[V:2] [C,2C2]z2z4 | 
[V:1] C2=B,2C2B,2 | 
[V:2] z8[K:clef=treble] | 
[V:1] z2[K:clef=bass].C,2.F,2.G,2 | 
[V:2] z2[F2A2][F2A2][F2A2] & C8 | 
[V:1] .A,2[K:clef=treble].c2.f2.g2 | 
[V:2] z2[F2A2][F2A2][F2A2] & C8 | 
[V:1] {/c}!sfz!a6f2 | 
[V:2] z2[F2A2][F2A2][F2A2] & C8 | 
[V:1] {/c}!sfz!a6f2 | 
[V:2] z2[F2A2][F2A2][F2A2] & C8 | 
[V:1] .=e2[K:clef=bass].C,2.G,2.A,2 | 
[V:2] z2[G2B2][G2B2][G2B2] & C8 | 
[V:1] .B,2[K:clef=treble]c2b2a2 | 
[V:2] z2[G2B2][G2B2][G2B2] & C8 | 
[V:1] !mordent!a2g2!mordent!g2f2 | 
[V:2] z2[G2B2][G2B2][G2B2] & C8 | 
[V:1] !mordent!f2=e2.d2.e2 | 
[V:2] z2[G2B2][G2B2][G2B2] & C8 | 
[V:1] .f2[K:clef=bass].C,2.F,2.G,2 | 
[V:2] z2[F2A2][F2A2][F2A2] & C8 | 
[V:1] .A,2[K:clef=treble].c2.f2.a2 | 
[V:2] z2[F2A2][F2A2][F2A2] & C8 | 
[V:1] {/c}!sfz!c'6f2 | 
[V:2] z2[C2F2][C2F2][C2F2] & A,8 | 
[V:1] {/f}!sfz!f'6c'2 | 
[V:2] z2[C2F2][C2F2][C2F2] & A,8 | 
[V:1] .=b2[K:clef=bass].G,,2.D,2.E,2 | 
[V:2] z2[D2F2][D2F2][D2F2] & G,8 | 
[V:1] .F,2[K:clef=treble]G2f2e2 | 
[V:2] z2[D2F2][D2F2][D2F2] & G,8 | 
[V:1] !mordent!e2d2!mordent!d2c2 | 
[V:2] z2[D2F2][D2F2][D2F2] & G,8 | 
[V:1] !mordent!c2=B2.=A2.B2 | 
[V:2] z2[D2F2][D2F2][D2F2] & G,8 | 
[V:1] .c2[K:clef=bass].G,,2.C,2.D,2 | 
[V:2] z2[C2E2][C2E2][C2E2] & G,8 | 
[V:1] .E,2[K:clef=treble].g2.c'2.d'2 | 
[V:2] z2[C2E2][C2E2][C2E2] & G,8 | 
[V:1] {/g}!sfz!e'6c'2 | 
[V:2] z2[C2E2][C2E2][C2E2] & G,8 | 
[V:1] {/g}!sfz!e'6c'2 | 
[V:2] z2[C2E2][C2E2][C2E2] & G,8 | 
[V:1] .=b2[K:clef=bass].G,,2.D,2.E,2 | 
[V:2] z2[D2F2][D2F2][D2F2] & G,8 | 
[V:1] .F,2[K:clef=treble]g2f'2e'2 | 
[V:2] z2[D2F2][D2F2][D2F2] & G,8 | 
[V:1] !mordent!e'2d'2!mordent!d'2c'2 | 
[V:2] z2[D2F2][D2F2][D2F2] & G,8 | 
[V:1] !mordent!c'2=b2=a2b2 | 
[V:2] z2[D2F2][D2F2][D2F2] & G,8 | 
[V:1] !mordent!d'2c'2!mordent!c'2_b2 | 
[V:2] z2[E2G2][E2G2][E2G2] & C8 | 
[V:1] !mordent!b2=a2g2a2 | 
[V:2] z2[E2F2][E2F2][E2F2] & F,8 | 
[V:1] !mordent!c'2_b2!mordent!b2_a2 | 
[V:2] z2[_D2F2][D2F2][D2F2] & B,8 | 
[V:1] !mordent!a2g2f2g2 | 
[V:2] z2[_D2E2][D2E2][D2E2] & E,8 | 
[V:1] !mordent!b2a2!mordent!a2g2 | 
[V:2] z2[C2E2][C2E2][C2E2] & A,8 | 
[V:1] !mordent!g2^f2.f2.f2 | 
[V:2] z2[C2E2][C2E2][C2E2] & A,8 | 
[V:1] !mordent!a2g2.g2.g2 | 
[V:2] z2[C2E2][C2E2][C2E2] & G,8 | 
[V:1] !mordent!a2g2.g2.g2 | 
[V:2] z2[=B,2D2][B,2D2][B,2D2][K:clef=bass] & G,8 | 
[V:1] x4c4- & z CEC cCEC | 
[V:2] z G,E,G, E,G,E,G, & C,8- | 
[V:1] c4c4 & ECEC z CEC | 
[V:2] E,G,E,G, z G,E,G, & C,4C,4 | 
[V:1] x4_d4- & z _D=ED _dDED | 
[V:2] z G,=E,G, E,G,E,G, & B,,8- | 
[V:1] d4_d4 & =E_DED z DED | 
[V:2] =E,G,E,G, z G,E,G, & B,,4B,,4 | 
[V:1] .cCFC .=e=EcE | 
[V:2] .A,,F,C,F, .B,,G,C,G, | 
[V:1] .fFcF .gGcG | 
[V:2] .A,,F,C,F, .G,,G,C,G, | 
[V:1] .aAcA .=a=AcA | 
[V:2] .F,,F,C,F, ._E,,_E,C,E, | 
[V:1] .=b=BfB .c'cfc | 
[V:2] .D,,D,G,,D, .C,,C,G,,C, | 
[V:1] .d'dfd .=e'=ege | 
[V:2] .=B,,,=B,,G,,B,, ._B,,,_B,,C,,B,, | 
[V:1] .f'faf .d'faf | 
[V:2] .A,,,A,,C,,A,, .F,,,F,,C,,F,, | 
[V:1] z _ege c'ege | 
[V:2] [G,,,2G,,2]z2z4 | 
[V:1] z dfd .=bdfd | 
[V:2] [G,,2G,2]z2z4 | 
[V:1] x4c4- & z CEC cCEC | 
[V:2] z G,E,G, E,G,E,G, & C,8- | 
[V:1] c4c4 & ECEC z CEC | 
[V:2] E,G,E,G, z G,E,G, & C,4C,4 | 
[V:1] x4_d4- & z _D=ED _dDED | 
[V:2] z G,=E,G, E,G,E,G, & B,,8- | 
[V:1] d4_d4 & =E_DED z DED | 
[V:2] =E,G,E,G, z G,E,G, & B,,4B,,4 | 
[V:1] .cCFC .=e=EcE | 
[V:2] .A,,F,C,F, .B,,G,C,G, | 
[V:1] .fFcF .gGcG | 
[V:2] .A,,F,C,F, .G,,G,C,G, | 
[V:1] .aAcA .=a=AcA | 
[V:2] .F,,F,C,F, .E,,E,C,E, | 
[V:1] .=b=BfB .c'cfc | 
[V:2] .D,,D,G,,D, .C,,C,G,,C, | 
[V:1] .d'dfd .=e'=ege | 
[V:2] .=B,,,=B,,G,,B,, ._B,,,_B,,C,,B,, | 
[V:1] .f'faf .d'faf | 
[V:2] .A,,,A,,C,,A,, .F,,,F,,C,,F,, | 
[V:1] z _ege .c'ege | 
[V:2] [G,,,2G,,2]z2z4 | 
[V:1] z dfd .=bdfd | 
[V:2] [G,,2G,2]z2z4 | 
[V:1] c2c'4=bc' | 
[V:2] C,2[C2E2][C2E2][C2E2] | 
[V:1] d'c'_ba gaba | 
[V:2] z2[C2E2][C2E2][C2E2] & A,8 | 
[V:1] gfed ^cded | 
[V:2] z2[C2D2][C2D2][C2D2] & F,8 | 
[V:1] =c=BAG ^FGA=F | 
[V:2] z2[=B,2D2][B,2D2][B,2D2] & G,8 | 
[V:1] .E2[c4c'4]=bc' | 
[V:2] z2[E,2C2][E,2C2][E,2C2] & C,8 | 
[V:1] d'c'_ba gaba | 
[V:2] z2[C,2E,2A,2][C,2E,2A,2][C,2E,2A,2] & A,,8 | 
[V:1] gfed ^cded | 
[V:2] z2[C,2D,2F,2][C,2D,2F,2][C,2D,2F,2] & F,,8 | 
[V:1] =c=BAG ^FGAG | 
[V:2] z2[=B,,2D,2G,2][B,,2D,2G,2][B,,2D,2G,2] & G,,8 | 
[V:1] c2C4.[_B,2=E2] | 
[V:2] C,,C,C,,C, C,,C,C,,C, | 
[V:1] .[A,2F2].[=E2G2].[F2A2].[D2=B2] | 
[V:2] C,,C,C,,C, C,,C,C,,C, | 
[V:1] .[E2c2]!sfz![=E4c4].[_B2=e2] | 
[V:2] C,,C,C,,C, C,,C,C,,C, | 
[V:1] .[A2f2].[=e2g2].[f2a2].[d2=b2] | 
[V:2] C,,C,C,,C, C,,C,C,,C, | 
[V:1] [c8_e8c'8] | 
[V:2] C,,C,C,,C, C,,C,C,,C, | 
[V:1] [C8E8c8] | 
[V:2] _B,,,_B,,B,,,B,, B,,,B,,B,,,B,, | 
[V:1] [c8e8c'8] | 
[V:2] A,,,A,,A,,,A,, A,,,A,,A,,,A,, | 
[V:1] [C8E8c8] | 
[V:2] G,,,G,,G,,,G,, G,,,G,,G,,,G,, | 
[V:1] [e8=a8c'8e'8] | 
[V:2] [^F,,,8^F,,8] | 
[V:1] !fermata![^F,8=A,8C8E8] ||  
[V:2] !fermata![^F,,8=A,,8C,8E,8] ||  
[V:1] [M:4/4]z2z/ [^F/=A/c/]<[F/A/d/][F//A//e//][F2A2e2][G=Bd] z | 
[V:2] [M:4/4]z2z/ E/<D/C//C2=B, z | 
[V:1] z2z/> [=B/d/=f/][B/d/g/]>[B/d/a/][B2d2a2][ceg] z | 
[V:2] z2z/>[K:clef=treble] A/G/>F/F2E z | 
[V:1] z2z/> [_B/=e/g/_b/][c/e/g/c'/]>[_d/e/g/_d'/][d2e2g2d'2][cc'][Bb] | 
[V:2] z2z/> [_D/=E/G/][C/E/G/]>[_B,/E/G/][A,2-B,2E2G2][A,CFA][G,C_E][K:clef=bass] | 
[V:1] [Aa][Gg][Ff][Ee] z [FAd] z [D,F,=B,] ||  
[V:2] [F,CF][_E,G,C][D,G,=B,][C,G,C] F, z [G,,,G,,] z ||  
[V:1] [M:2/2]C6.[_B,2=E2] | 
[V:2] [M:2/2]C,,C,C,,C, C,,C,C,,C, | 
[V:1] .[A,2F2].[=E2G2].[F2A2].[D2=B2] | 
[V:2] C,,C,C,,C, C,,C,C,,C, | 
[V:1] .[_E2c2]!sfz![=E4c4].[_B2=e2] | 
[V:2] C,,C,C,,C, C,,C,C,,C, | 
[V:1] .[A2f2].[=e2g2].[f2a2].[d2=b2] | 
[V:2] C,,C,C,,C, C,,C,C,,C, | 
[V:1] .[_e4c'4].[c4e4c'4] | 
[V:2] C,,C,C,,C, _B,,,_B,,B,,,B,, | 
[V:1] .[c4e4c'4].[c4e4c'4] | 
[V:2] A,,,A,,A,,,A,, G,,,G,,G,,,G,, | 
[V:1] .[e2=a2c'2e'2]z2z4 | 
[V:2] .[^F,,,2^F,,2]z2z4 | 
[V:1] .[^F2=A2c2e2]z2z4 | 
[V:2] .[^F,2=A,2C2E2]z2z4 | 
[V:1] .[G2c2e2g2]z2z4[K:clef=bass] | 
[V:2] .[G,2C2E2]z2z4 | 
[V:1] .[D,2F,2G,2=B,2]z2z4 | 
[V:2] .[G,,,2=B,,,2D,,2G,,2]z2z4 | 
[V:1] .[E,2G,2C2]z2z4 | 
[V:2] .[C,,2E,,2G,,2C,2]z2z4 | 
[V:1] !fermata!z8 |]  
[V:2] !fermata!z8 |]  


